public/images/icons/SPARTA2.svg

<?xml version="1.0" encoding="UTF-8" standalone="no"?>
<svg
   xmlns:dc="http://purl.org/dc/elements/1.1/"
   xmlns:cc="http://creativecommons.org/ns#"
   xmlns:rdf="http://www.w3.org/1999/02/22-rdf-syntax-ns#"
   xmlns:svg="http://www.w3.org/2000/svg"
   xmlns="http://www.w3.org/2000/svg"
   xmlns:sodipodi="http://sodipodi.sourceforge.net/DTD/sodipodi-0.dtd"
   width="16"
   height="16"
   viewBox="0 0 16 16"
   fill="none"
   version="1.1"
   id="svg4" >
  <metadata
     id="metadata10">
    <rdf:RDF>
      <cc:Work
         rdf:about="">
        <dc:format>image/svg+xml</dc:format>
        <dc:type
           rdf:resource="http://purl.org/dc/dcmitype/StillImage" />
        <dc:title />
      </cc:Work>
    </rdf:RDF>
  </metadata>
  <defs
     id="defs8" />
  <sodipodi:namedview
     pagecolor="#ffffff"
     bordercolor="#666666"
     borderopacity="1"
     objecttolerance="10"
     gridtolerance="10"
     guidetolerance="10"
     id="namedview6"
     showgrid="false" />
  <rect
     style="fill:#000000;fill-opacity:1;stroke-width:0.99062777"
     id="rect817"
     width="6.447475"
     height="13.835208"
     x="4.7762623"
     y="1.082396" />
  <path
     d="M 15.923161,7.9925199 C 16.016578,12.15697 12.53878,15.927993 7.9978624,15.925021 3.4644032,15.920563 0.02697763,12.151026 0.07550772,7.9775614 0.12627766,3.5745284 3.6084999,0.07198767 8.0307116,0.07497937 12.409603,0.0779708 15.923161,3.6021966 15.923161,7.9925199 Z M 6.8406111,14.672273 c 0.041805,-0.009 0.082865,-0.01794 0.1246803,-0.02625 C 6.9085484,12.286349 6.689788,9.9191854 7.2908217,7.620057 7.1870336,7.5295502 7.1392556,7.4652286 7.075796,7.4360646 6.74877,7.2849839 6.4224967,7.1316546 6.0865254,7.0007728 5.4966958,6.7711552 5.2689801,6.3762515 5.3749972,5.6679625 5.5049081,5.7307881 5.6213861,5.7921179 5.7423318,5.8444825 6.1402769,6.0172479 6.5315054,6.2117081 6.9406546,6.350822 7.4834491,6.5355642 7.5894662,6.6761739 7.5050944,7.25581 7.4476083,7.6499708 7.3744406,8.0433788 7.3445731,8.4405314 7.3169445,8.8032696 7.6596422,9.299148 7.9351457,9.358229 8.1740653,9.4098408 8.5428958,9.1009432 8.6593639,8.7067922 8.7064088,8.5482323 8.6854966,8.3634903 8.6683291,8.1929636 8.6295064,7.7965639 8.5667898,7.4031559 8.5279671,7.0067563 8.494365,6.6679417 8.6728067,6.4899359 8.9871328,6.3785002 9.430627,6.222179 9.8599259,6.0247272 10.294415,5.8437296 10.413191,5.7943669 10.530383,5.7390203 10.663324,5.6791864 10.724547,6.478722 10.521467,6.7801303 9.8435011,7.0314329 9.4769092,7.167555 9.127495,7.3493054 8.7228334,7.5325417 9.326839,9.9229165 9.0976275,12.296054 9.1327255,14.672967 c 0.17545,-0.199711 0.2979015,-0.409822 0.4061573,-0.62677 0.09407,-0.18921 0.169486,-0.387435 0.2568396,-0.580309 0.4150836,-0.918512 0.8473926,-1.829493 1.2371066,-2.758404 0.120955,-0.289462 0.17326,-0.62677 0.177025,-0.9431277 0.01713,-1.55793 0.01565,-3.1158606 0.0029,-4.6737911 C 11.209854,4.718852 11.200839,4.3284357 11.088106,3.981399 10.886513,3.3606123 10.705822,2.6927212 10.333248,2.1773966 9.6628201,1.2499709 8.6384617,0.99642375 7.5342189,1.140774 6.6524612,1.2559543 5.8729956,1.6560986 5.4728019,2.458616 5.0524587,3.3015313 4.7859204,4.2199818 4.7926369,5.19154 c 0.01045,1.5332439 -0.00224,3.065745 0.00895,4.5989994 0.0015,0.2446056 0.028372,0.5086076 0.1239374,0.7284276 0.5532458,1.278208 1.1281468,2.546706 1.7007989,3.816691 0.053752,0.119668 0.1418578,0.22517 0.2142827,0.336615 z"
     id="path2"
     style="fill:#fb2715;stroke-width:0.99062777" />
</svg>

<svg xmlns="http://www.w3.org/2000/svg" width="16" height="16" fill="none"><path fill="#000" d="M4.776 1.082h6.447v13.835H4.776z"/><path d="M15.923 7.993c.094 4.164-3.384 7.935-7.925 7.932C3.464 15.921.027 12.151.076 7.978.126 3.575 3.608.072 8.03.075a7.883 7.883 0 017.892 7.918zm-9.082 6.68c.041-.01.082-.019.124-.027-.056-2.36-.275-4.727.326-7.026-.104-.09-.152-.155-.215-.184-.327-.151-.654-.304-.99-.435-.59-.23-.817-.625-.711-1.333.13.063.246.124.367.176.398.173.79.368 1.199.507.542.185.648.325.564.905-.057.394-.13.787-.16 1.185-.028.362.315.858.59.917.24.052.608-.257.724-.651.047-.159.026-.344.01-.514-.04-.396-.102-.79-.141-1.186-.034-.34.145-.517.46-.628.443-.157.872-.354 1.306-.535.12-.05.236-.105.37-.165.06.8-.143 1.101-.82 1.352-.367.137-.717.318-1.121.502.604 2.39.375 4.763.41 7.14.175-.2.298-.41.406-.627.094-.189.17-.387.257-.58.415-.919.847-1.83 1.237-2.759.12-.289.173-.626.177-.943.017-1.558.016-3.116.003-4.673-.003-.372-.012-.763-.125-1.11-.201-.62-.382-1.288-.755-1.804-.67-.927-1.695-1.18-2.799-1.036-.882.115-1.661.515-2.061 1.318-.42.843-.687 1.761-.68 2.733.01 1.533-.003 3.065.009 4.599.001.244.028.508.124.728.553 1.278 1.128 2.547 1.7 3.817.054.12.142.225.215.336z" fill="#fb2715"/></svg>
